!! 00026] TT[00
!! Eigene Aufnahme
!!!OTL: Yonghu balu jun
!!!ARE: Asia, China, Shanxi Shanbei
!! Ethnic Group: Han
!! I, 57, 2)
!!!SCT: C0016
!!!YEM: Copyright 1995, estate of Helmut Schaffrath.
**kern
*ICvox
*Ivox
*M2/4
*k[b-]
*F:
{8a
8cc
4dd
=1
8ff
4ff
8dd
=2
8cc
8a
8cc
8ff
=3
2cc}
=4
{8a
8cc
8.dd
16dd
=5
8ff
8dd
8cc
8a
=6
8g
8f
8g
8a
=7
2g}
=8
{4cc
4e-
=9
4cc
4e-
=10
8cc
8a
8cc
8dd
=11
2f}
=12
{8d
8f
8.g
16g
=13
8a
8g
8f
8d
=14
8c
8A
8c
8d
=15
2c}
=16
{8.g
16f
8g
8a
=17
4.g
8a
=18
8.cc
16a
8cc
8dd
=19
2f}
=20
{8d
8f
8.g
16g
=21
8a
8g
8f
8d
=22
8c
8A
8c
8d
=23
2c}
==
!!!AGN: Xiaodiao, Da huangyang diao, Wuge, Yangge. Geming lishi minge
!! Urspruenglich gehoerte beim Tanz eine mit Muenzen gefuellte
!!    Bambus- Rassel dazu.
!!    Die Saengerin Lei Huilan ist Angehoerige der Zhuang Minderheit
!!    und  studiert an der Guangzhouer Musikhochschule.
!!    Aufgenommen am 5.5.87
!!    Notation der Strophen 2-4 ist angegeben. Veraenderungen:
!!    -1. Strophe, Takte 1 u. 2: 5__-7__  5__-7__,  tief klingende 7)
!!    -5. Strophe: die letzten beiden Takte eine Oktave hoeher.
!!!ONB: ESAC (Essen Associative Code) Database: CHINA
!!!AMT: simple duple
!!!AIN: vox
!!!EED: Helmut Schaffrath
!!!EEV: 1.0
*-
